src/symbolic/apps/preferences-desktop-accessibility-symbolic.svg

<svg xmlns="http://www.w3.org/2000/svg" width="16" height="16" version="1.1">
 <path style="fill:#444444" d="M 7.5,0 C 6.12,0 5,1.12 5,2.5 5,3.88 6.12,5 7.5,5 8.88,5 10,3.88 10,2.5 10,1.12 8.88,0 7.5,0 Z M 1,6 V 8 H 5 V 16 H 7 V 11 H 8 V 16 H 10 V 8 H 14 V 6 Z"/>
</svg>

<svg xmlns="http://www.w3.org/2000/svg" width="16" height="16"><path d="M7.5 0a2.5 2.5 0 0 0 0 5 2.5 2.5 0 0 0 0-5zM1 6v2h4v8h2v-5h1v5h2V8h4V6z" fill="#444"/></svg>
